packages/ui-icons/svg/Solid/muted.svg

<svg viewBox="0 0 1920 1920" version="1.1" xmlns="http://www.w3.org/2000/svg">
    <path d="M1555.2,417.882353 L1566.49412,433.694118 C1650.07059,555.670588 1694.11765,697.976471 1694.11765,847.058824 L1694.11765,847.058824 L1694.11765,1242.35294 C1694.11765,1366.58824 1795.76471,1468.23529 1920,1468.23529 L1920,1468.23529 L1920,1581.17647 L1298.82353,1581.17647 C1298.82353,1767.52941 1146.35294,1920 960,1920 C773.647059,1920 621.176471,1767.52941 621.176471,1581.17647 L621.176471,1581.17647 L621.176471,1532.61176 L1555.2,417.882353 Z M1016.49318,-0.0338823529 L1016.49318,115.730824 C1093.18024,121.490824 1168.17318,138.657882 1240.00376,168.022588 C1297.03906,192.192 1349.10494,222.234353 1395.86259,256.907294 L1395.86259,256.907294 L1594.41318,20.1825882 L1680.92612,92.8037647 L212.690824,1843.392 L126.177882,1770.77082 L285.199059,1581.14259 L0.0225882353,1581.14259 L0.0225882353,1468.20141 C59.7684706,1468.20141 118.159059,1444.14494 159.947294,1402.24376 C201.848471,1360.45553 225.904941,1302.17788 225.904941,1242.31906 L225.904941,1242.31906 L225.904941,847.024941 C225.904941,461.330824 525.086118,144.869647 903.552,115.843765 L903.552,115.843765 L903.552,-0.0338823529 L1016.49318,-0.0338823529 Z" stroke="none" stroke-width="1" fill-rule="evenodd"/>
</svg>

<svg viewBox="0 0 1920 1920" version="1.1" xmlns="http://www.w3.org/2000/svg">
    <path d="M1594.413 20.183l86.513 72.62L212.691 1843.393l-86.513-72.621 159.021-189.628H.023V1468.2c59.745 0 118.136-24.056 159.924-65.957 41.901-41.788 65.958-100.066 65.958-159.925V847.025c0-385.694 299.181-702.155 677.647-731.181V-.034h112.941v115.765c76.687 5.76 151.68 22.927 223.51 52.292 57.036 24.169 109.102 54.211 155.86 88.884l198.55-236.724zm99.705 1222.17c0 124.235 101.647 225.882 225.882 225.882v112.941h-621.176C1298.824 1767.53 1146.353 1920 960 1920s-338.824-152.47-338.824-338.824v-48.564L1555.2 417.882l11.294 15.812c83.577 121.977 127.624 264.282 127.624 413.365v395.294z" stroke="none" stroke-width="1" fill-rule="evenodd"/>
</svg>
